X: 3135
T: Beautiful Gortree
R: reel
M: 4/4
K: Emajor
ec|BE (3EEE E2 F(B|~cB)GB {f}g2 bg|fe(gf e)cBe|(~fgf)e c(BGF)|
{D}E3F GFEG|(3BBB GB g2 bg|f3e (gfe)c|1 B(GFG) E2:|2 B(GFG) E(e~fe)z||
{f}g ~fe b(e~ge)|e(f~fe) ceBe|(~fgf)e b(e~ge)|(Bcc)(B Bc)e(f|fg)(~feb)(e~ge)|
e(f~fe) ceBe|(~fgf)e ceec|1 BGFG E(e~fe):|2 BGFG E2||

